!!!OTL: ACH WENN ICK DOCH EIST MAL
!!!ARE: Europa, Mitteleuropa, Deutschland, Brauschweig
!!!SCT: E0897
!!!YEM: Copyright 1995, estate of Helmut Schaffrath.
**kern
*ICvox
*Ivox
*M6/8
*k[f#]
*G:
{8d
=1
8g
8f#
8g
8a
8g
8a
=2
8b
8dd
8b
8b
8a}
{8d
=3
8g
8f#
8g
8a
8g
8a
=4
8b
8dd
8b
8b
8a}
{8cc
=5
8b
8dd
8dd
8dd
8cc
8cc
=6
8b
8dd
8b
8b
8a}
{8cc
=7
8b
8dd
8dd
8dd
8cc
8cc
=8
8b
8dd
8b
8b
8a}
{8d
=9
8d
8cc
8cc
8cc
8b
8g
=10
8g
8ee
8ee
8ee
8dd}
{8dd
=11
8dd
8cc
8cc
8b
8dd
8b
=12
8a
8dd
16cc
16a
4g}
==
!!!AGN: Ehestands - Lied, Klage
!!!ONB: ESAC (Essen Associative Code) Database: ERK2
!!!AMT: compound duple
!!!AIN: vox
!!!EED: Helmut Schaffrath
!!!EEV: 1.0
*-
